X: 39
T: Search-Light Rag
C: Scott Joplin
%%abc-version 2.0
%%abcx-abcm2ps-target-version 5.9.1 (29 Sep 2008)
%%abc-creator hum2abc beta
%%abcx-conversion-date 2021/07/20 09:00:56
%%abc-copyright 2021 Craig Stuart Sapp
%%abc-edited-by Craig Stuart Sapp
%%abc-edited-by Craig Stuart Sapp
%%abcx-initial-encoding-date 2004/11/28
%%humdrum-veritas 2881269350
%%humdrum-veritas-data 3401022549
%%removed 0's from note length
%%linebreak <none>
%%barnumbers 0
L: 1/8
M: 2/4
N: Derived from searchlight.krn
Q: 1/4=88
%%staves {1 2}
V: 1 clef=treble
V: 2 clef=bass
K: Bb
[V:1] BG- G/D/G | 
[V:2] B,G,- G,/D,/G, | 
[V:1] FD- D/B,/D | 
[V:2] F,D,- D,/B,,/D, | 
[V:1] CB,- B,/D/F/d/ | 
[V:2] C,B,,- B,,/D,/F,/D/ | 
[V:1] c z !accent![fcAF] ]|:  
[V:2] C z !accent![F,F,,] ]|:  
[V:1] d>c B/c/d/e/ & [B4F4] | 
[V:2] [B,B,,][DB,F,] [G,G,,][F,F,,] | 
[V:1] f/gd/ fd'/c'/ & B2df | 
[V:2] [D,D,,][DB,F,] B,,[DB,_A,] | 
[V:1] [bg]>[af] [g/e/][ec][d/B/]- | 
[V:2] [E,E,,][EB,G,] [G,G,,][_G,_G,,] | 
[V:1] [d2B2][e2c2] | 
[V:2] [F,F,,][B,B,,] [A,A,,][F,F,,] | 
[V:1] d>c B/c/d/e/ & B4 | 
[V:2] [B,B,,][DB,F,] [G,G,,][F,F,,] | 
[V:1] f/gd/ ff/g/ & B2-BB | 
[V:2] [D,D,,][FDB,] [_D,_D,,][F_DB,] | 
[V:1] a>c' c/gf/- & c2c/BA/ | 
[V:2] [C,C,,][FCA,] C,[=ECB,] | 
[V:1] fg/f/ e/d/c/f/ & A4 | 
[V:2] [FCA,F,][F,F,,] [G,G,,][A,A,,] | 
[V:1] d>c B/c/d/e/ & F4 | 
[V:2] [B,B,,][DB,F,] [G,G,,][F,F,,] | 
[V:1] f/gd/ f=e/f/ & B2d2 | 
[V:2] [D,D,,][DB,F,] B,,[DB,F,] | 
[V:1] ^f>a e'/d'c'/ & d2f2 | 
[V:2] [A,A,,][DC^F,] [D,D,,][DCF,] | 
[V:1] [b3g3][_ad] | 
[V:2] [DB,G,][B,/B,,/][A,/A,,/] [G,/G,,/][_G,/_G,,/][F,F,,] | 
[V:1] [ge]>[fd] [e/c/]d/e/b/ | 
[V:2] [E,E,,][EB,G,] [G,G,,][_G,_G,,] | 
[V:1] [bd]>=e [f/d/]e/f/[_g/_f/] & x2d/e/f/_f/ | 
[V:2] [F,F,,][DB,F,] [DB,F,][D/D,/][_D/_D,/] | 
[V:1] [=g/e/]be/ [e/A/G/][d/A/F/][cAE] & B2x2 |[1 
[V:2] [CC,][ECG,][F,2F,,2] | 
[V:1] [B3F3D3][ecF] :|][2 
[V:2] [B,B,,][F,/F,,/][=E,/=E,,/] [F,/F,,/][^F,/^F,,/][G,/G,,/][A,/A,,/] :|]  
[V:1] [BFD]!accent!f/!accent!f/ !accent!f!accent!f | 
[V:2] [B,B,,] zz2 | 
[V:1]  [K:Bb] f/A/e/f/- f/e/G | 
[V:2]  [K:Bb] [F,F,,][G,G,,] [A,A,,][B,B,,] | 
[V:1] e/G/^G/A/- A/e/=G | 
[V:2] [CC,][=B,=B,,] [CC,][^CC,] | 
[V:1] F/B/d/[f/-d/B/F/-][f2d2B2F2]- | 
[V:2] [DD,][DB,F,] [B,/B,,/][C/C,/][D/D,/][C/C,/] | 
[V:1] [fdBF]d/c/ B/A/G/_G/ | 
[V:2] [B,B,,][DB,F,] [DB,F,][=B,=B,,] | 
[V:1] F/A/c/[f/c/A/F/]-[f2c2A2F2]- | 
[V:2] [CC,][EA,F,] [A,/A,,/][B,/B,,/][C/C,/][B,/B,,/] | 
[V:1] [fcAF]c/B/ A/_A/G/_G/ | 
[V:2] [A,A,,][FEA,] [FF,][EE,] | 
[V:1] F/B/d/[f/d/B/F/]-[f2d2B2F2]- | 
[V:2] [DD,][DB,F,] [B,/B,,/][C/C,/][D/D,/][B,/B,,/] | 
[V:1] [fdBF]f/f/ ff | 
[V:2] [F,F,,] zz2 | 
[V:1] f/A/e/f/- f/e/G | 
[V:2] [F,F,,][G,G,,] [A,A,,][B,B,,] | 
[V:1] e/G/^G/A/- A/e/=G | 
[V:2] [CC,][=B,=B,,] [CC,][^CC,] | 
[V:1] F/B/d/[f/d/B/F/]-[f2d2B2F2]- | 
[V:2] [DD,][DB,F,] [B,/B,,/][C/C,/][D/D,/][C/C,/] | 
[V:1] [fdBF]d/e/ [fdBF][^fdc^F] | 
[V:2] [B,B,,][DB,F,] [B,B,,][A,A,,] | 
[V:1] g>_a a/g/g/f/ & [d4=B4G4] | 
[V:2] [G,G,,][F=B,G,] [B,=B,,][FB,G,] | 
[V:1] fe^c2 & [c2G2][B2G2] |[1 
[V:2] C,/G,/C/E/=E2 | 
[V:1] d/e/f/g/ [d/A/F/][cAE][B/D/]- & B2x2 | 
[V:2] FD F,[F,F,,] | 
[V:1] [BD]f/f/ ff :|][2 
[V:2] [B,B,,] zz2 :|]  
[V:1] d/e/f/g/ [d/A/F/][cAE][B/D/]- & B2x2 | 
[V:2] FD F,[F,F,,] | 
[V:1] [B3D3][ecF] | 
[V:2] [B,B,,][F,/F,,/][=E,/=E,,/] [F,/F,,/][^F,/^F,,/][G,/G,,/][A,/A,,/] | 
[V:1] d>c B/c/d/e/ & [B4F4] | 
[V:2] [B,B,,][DB,F,] [G,G,,][F,F,,] | 
[V:1] f/gd/ fd'/c'/ & B2df | 
[V:2] [D,D,,][DB,F,] B,,[DB,_A,] | 
[V:1] [bg]>[af] [g/e/][ec][d/B/]- | 
[V:2] [E,E,,][EB,G,] [G,G,,][_G,_G,,] | 
[V:1] [d2B2][e2c2] | 
[V:2] [F,F,,][B,B,,] [A,A,,][F,F,,] | 
[V:1] d>c B/c/d/e/ & B4 | 
[V:2] [B,B,,][DB,F,] [G,G,,][F,F,,] | 
[V:1] f/gd/ ff/g/ & B2-BB | 
[V:2] [D,D,,][FDB,] [_D,_D,,][F_DB,] | 
[V:1] a>c' c/gf/- & c2c/BA/- | 
[V:2] [C,C,,][FCA,] C,[=ECB,] | 
[V:1] fg/f/ e/d/c/f/ & A4 | 
[V:2] [FCA,F,][F,F,,] [G,G,,][A,A,,] | 
[V:1] d>c B/c/d/e/ & F4 | 
[V:2] [B,B,,][DB,F,] [G,G,,][F,F,,] | 
[V:1] f/gd/ f=e/f/ & B2d2 | 
[V:2] [D,D,,][DB,F,] B,,[DB,F,] | 
[V:1] ^f>a _e'/d'c'/ & d2f2 | 
[V:2] [A,A,,][DC^F,] [D,D,,][DCF,] | 
[V:1] [b3g3][_ad] | 
[V:2] [DB,G,][B,/B,,/][A,/A,,/] [G,/G,,/][_G,/_G,,/][F,F,,] | 
[V:1] [ge]>[fd] [e/c/]d/e/b/ | 
[V:2] [E,E,,][EB,G,] [G,G,,][_G,_G,,] | 
[V:1] [bd]>=e [f/d/]e/f/[_g/_f/] & x2d/e/f/_f/ | 
[V:2] [F,F,,][DB,F,] [DB,F,][D/D,/][_D/_D,/] | 
[V:1] [=g/_e/]be/ [e/A/G/][d/A/F/][cAE] & B2x2 | 
[V:2] [CC,][ECG,][F,2F,,2] | 
[V:1] [B2D2]-[BD][b_ad] ]|:  
[V:2] [B,B,,][_A,_A,,] [G,G,,][F,F,,] ]|:  
[V:1]  [K:Eb] z/ [e'/g/e/][d'/g/d/][c'/g/c/]- [c'/g/c/][b/B/][c'/c/][^c'/^c/] | 
[V:2]  [K:Eb] [E,E,,][EB,G,] [G,G,,][_G,_G,,] | 
[V:1] [d'ad][^c'/^c/][d'/a/d/]-[d'2a2d2] | 
[V:2] [F,F,,][DB,A,] B,,/D,/F,/B,/ | 
[V:1] z/ [d'/a/d/][_d'/a/_d/][c'/a/c/]- [c'/a/c/][f/F/][g/G/][a/A/] | 
[V:2] [F,F,,][DB,A,] [B,,B,,,][DB,A,] | 
[V:1] [=a2^f2e2=A2][b2g2e2B2] | 
[V:2] z/ C,/E,/^F,/ G,/E,/B,, | 
[V:1] z/ [e'/g/e/][d'/g/d/][c'/g/c/]- [c'/g/c/][b/B/][c'/c/][^c'/^c/] | 
[V:2] [E,E,,][EB,G,] [E,E,,][EB,G,] | 
[V:1] [d'bgd][^c'/^c/][d'/b/g/d/]-[d'2b2g2d2] | 
[V:2] [D,D,,][DB,G,] D,/G,/B,/D/ | 
[V:1] z/ [d'/d/][e'/e/][d'/=a/^f/d/]- [d'/a/f/d/][^c'/^c/][d'afd] | 
[V:2] [D,D,,][DC^F,] [D,D,,][DCF,] | 
[V:1] [d'bgd][d'=ad][d'2b2_a2d2] | 
[V:2] [G,G,,][^F,^F,,] [=F,=F,,][B,,B,,,] | 
[V:1] z/ [e'/g/e/][d'/g/d/][c'/g/c/]- [c'/g/c/][b/B/][c'/c/][^c'/^c/] | 
[V:2] [E,E,,][EB,G,] [G,G,,][_G,_G,,] | 
[V:1] [d'ad][^c'/^c/][d'/a/d/]-[d'2a2d2] | 
[V:2] [F,F,,][DB,A,] B,,/D,/F,/B,/ | 
[V:1] z/ [=b/g/][d'/d/]g/ b/[d'd][e'/c'/g/e/]- | 
[V:2] =B,G, =A,B, | 
[V:1] [e'2c'2g2e2]-[e'c'ge][_d'ge] | 
[V:2] C/^F,/G,/E,/ C,[_B,_B,,] | 
[V:1] [c'a]b/a/ e/ag/- & e2e3/e/- | 
[V:2] [A,A,,][ECA,] [CC,][_C_C,] | 
[V:1] g/a/=a/b/x2 & e2!accent![c'^fe]!accent![=aec] |[1 
[V:2] [B,B,,][EB,G,] !accent![=A,=A,,]!accent![^F,^F,,] | 
[V:1] b/g/f/e/x2 & [e2B2][f/d/][bdB][e/B/G/]- | 
[V:2] G,[EB,G,] B,,[DB,A,] & [G,2G,,2]x2 | 
[V:1] [e2B2G2]-[eBG][bad] :|][2 
[V:2] [EE,][B,B,,] [G,G,,][F,F,,] :|]  
[V:1] b/g/f/e/x2 & [e2B2][f/d/][bdB][e/B/G/]- | 
[V:2] G,[EB,G,] B,,[DB,A,] & [G,2G,,2]x2 | 
[V:1] [e2B2G2]-[eBG]B/=B/ ]|: 
[V:2] [E,E,,][G,G,,] [B,B,,][G,/G,,/][_G,/_G,,/] ]|:  
[V:1] c/[bad]c/ [bad]c/[b/a/d/]- | 
[V:2] [F,F,,][DB,A,] [B,,B,,,][DB,A,] | 
[V:1] [b/a/d/]c/[b/a/d/]c'/ b/a/f/d/ | 
[V:2] [F,F,,][DB,A,] [B,,B,,,][DB,A,] | 
[V:1] c/[bge]c/ [bge]c/[b/g/e/]- | 
[V:2] [E,E,,][EB,G,] [B,,B,,,][EB,G,] | 
[V:1] [b/g/e/]c/[b/g/e/]c'/ b/g/b/e'/ | 
[V:2] [E,E,,][EB,G,] [B,,B,,,][EB,G,] | 
[V:1] [f'/f/]a/c'/[e'/e/]- [e'/e/][d'/d/][c'c] | 
[V:2] [A,,A,,,][FECA,] [=A,,=A,,,][^FEC=A,] | 
[V:1] x2b/a/g & [c'/c/]e/g/[b/=e/B/]-[e2B2] | 
[V:2] [B,,B,,,][GEB,] [C,C,,][=ECB,] | 
[V:1] [g/_e/]c/e/[g/e/]- [g/e/]c/d/e/ & =A>A-A2 | 
[V:2] [F,F,,][_EC=A,F,] [F,,F,,,][ECA,F,] | 
[V:1] [f2d2_A2]-[fdA]B/=B/ | 
[V:2] [B,,B,,,][D,/D,,/][F,/F,,/] [B,B,,][G,/G,,/][_G,/_G,,/] | 
[V:1] c/[bad]c/ [bad]c/[b/a/d/]- | 
[V:2] [F,F,,][DB,A,] [B,,B,,,][DB,A,] | 
[V:1] [b/a/d/]c/[b/a/d/]c'/ b/a/f/d/ | 
[V:2] [F,F,,][DB,A,] [B,,B,,,][DB,A,] | 
[V:1] c/[bge]c/ [bge]c/[b/g/e/]- | 
[V:2] [E,E,,][EB,G,] [B,,B,,,][EB,G,] | 
[V:1] [b/g/e/]c/[b/g/e/]c'/ b/g/b/e'/ | 
[V:2] [E,E,,][EB,G,] [B,,B,,,][EB,G,] | 
[V:1] [f'/f/]a/c'/[e'/e/]- [e'/e/][d'/d/][c'c] | 
[V:2] [A,,A,,,][FECA,] [=A,,=A,,,][^FEC=A,] | 
[V:1] x2b/a/g & [c'/c/]e/g/[b/-=e/-B/][e2B2] | 
[V:2] [B,,B,,,][GEB,] [C,C,,][=ECB,] | 
[V:1] [g/_e/]c/d/e/- e/e/[fd] & =A>A- A_A |[1 
[V:2] [F,F,,][_EC=A,F,] [C,C,,][B,,B,,,] | 
[V:1] [e2B2G2]-[eBG]B/=B/ :|][2 
[V:2] [E,E,,][G,G,,] [B,B,,][G,/G,,/][_G,/_G,,/] :|]  
[V:1] [e2B2G2][e'bge] |]  
[V:2] [E,E,,]B,,E,, |]  


